outputs/icons/general/transfer_round.svg

<svg xmlns="http://www.w3.org/2000/svg" width="1200" height="1200" fill="none"><path fill="#000" d="M900 569.82c0 11.14 13.465 16.715 21.34 8.84l169.82-169.821c4.885-4.881 4.885-12.797 0-17.678L921.34 221.339c-7.875-7.875-21.34-2.298-21.34 8.839V350H200c-27.614 0-50 22.386-50 50s22.386 50 50 50h700zM300 630.18c0-11.14-13.464-16.715-21.339-8.84L108.839 791.16c-4.882 4.885-4.882 12.795 0 17.68l169.822 169.82c7.875 7.875 21.339 2.3 21.339-8.84V850h700c27.615 0 50-22.385 50-50s-22.385-50-50-50H300z"/></svg>

<svg width="1200" height="1200" viewBox="0 0 1200 1200" fill="none" xmlns="http://www.w3.org/2000/svg"><path d="M900 569.82C900 580.96 913.465 586.535 921.34 578.66L1091.16 408.839C1096.045 403.958 1096.045 396.042 1091.16 391.161L921.34 221.339C913.465 213.464 900 219.041 900 230.178V350H200C172.386 350 150 372.386 150 400C150 427.614 172.386 450 200 450H900V569.82Z" fill="black"/><path d="M300 630.18C300 619.04 286.536 613.465 278.661 621.34L108.839 791.16C103.957 796.045 103.957 803.955 108.839 808.84L278.661 978.66C286.536 986.535 300 980.96 300 969.82V850H1000C1027.615 850 1050 827.615 1050 800C1050 772.385 1027.615 750 1000 750H300V630.18Z" fill="black"/></svg>
